packages/ffe-icons/icons/open/500/md/shopping_basket.svg

<svg xmlns="http://www.w3.org/2000/svg" height="24" viewBox="0 -960 960 960" width="24"><path d="M226.978-111.869q-30.587 0-54.815-18.653-24.228-18.652-32.946-48.239L36.261-550.196q-5.718-21.63 7.456-39.782 13.174-18.153 36.044-18.153H267.13l172.174-258.173q6.196-9.914 16.989-15.87 10.794-5.957 22.707-5.957t22.707 5.957q10.793 5.956 16.989 15.87L690.87-608.131h189.369q22.87 0 36.044 18.153 13.174 18.152 7.456 39.782L821.5-179q-8.717 29.826-32.826 48.478-24.109 18.653-54.935 18.653H226.978ZM225.5-202.87h509l86.565-314.26h-682.13L225.5-202.87ZM480-278.087q33.957 0 57.935-23.978T561.913-360q0-33.957-23.978-57.935T480-441.913q-33.957 0-57.935 23.978T398.087-360q0 33.957 23.978 57.935T480-278.087ZM376.087-608.131h206.826L478.761-761.782 376.087-608.131ZM480-360Z"/></svg>

<svg xmlns="http://www.w3.org/2000/svg" height="24" viewBox="0 -960 960 960" width="24"><path d="M226.98-111.87q-30.59 0-54.82-18.65t-32.94-48.24L36.26-550.2q-5.72-21.63 7.46-39.78 13.17-18.15 36.04-18.15h187.37L439.3-866.3q6.2-9.92 16.99-15.87 10.8-5.96 22.71-5.96t22.71 5.96q10.79 5.95 16.99 15.87l172.17 258.17h189.37q22.87 0 36.04 18.15 13.18 18.15 7.46 39.78L821.5-179q-8.72 29.83-32.83 48.48-24.1 18.65-54.93 18.65H226.98Zm-1.48-91h509l86.57-314.26H138.93l86.57 314.26ZM480-278.09q33.96 0 57.93-23.98 23.98-23.97 23.98-57.93t-23.98-57.93q-23.97-23.98-57.93-23.98t-57.93 23.98q-23.98 23.97-23.98 57.93t23.98 57.93q23.97 23.98 57.93 23.98ZM376.09-608.13h206.82L478.76-761.78 376.09-608.13ZM480-360Z"/></svg>
